svgs/sharp-solid/arrow-down-wide-short.svg

<svg xmlns="http://www.w3.org/2000/svg" viewBox="0 0 576 512"><!--! Font Awesome Pro 6.6.0 by @fontawesome - https://fontawesome.com License - https://fontawesome.com/license (Commercial License) Copyright 2024 Fonticons, Inc. --><path d="M320 480l-32 0 0-64 32 0 32 0 32 0 0 64-32 0-32 0zm0-128l-32 0 0-64 32 0 96 0 32 0 0 64-32 0-96 0zm0-128l-32 0 0-64 32 0 160 0 32 0 0 64-32 0-160 0zm0-128l-32 0 0-64 32 0 224 0 32 0 0 64-32 0L320 96zM151.7 469.5l-23.7 26-23.7-26-80-88L2.8 357.8l47.4-43 21.5 23.7L96 365.2 96 80l0-32 64 0 0 32 0 285.2 24.3-26.8 21.5-23.7 47.4 43-21.5 23.7-80 88z"/></svg>

<svg xmlns="http://www.w3.org/2000/svg" viewBox="0 0 576 512"><!--! Font Awesome Pro 6.5.2 by @fontawesome - https://fontawesome.com License - https://fontawesome.com/license (Commercial License) Copyright 2024 Fonticons, Inc. --><path d="M320 480H288V416h32 32 32v64H352 320zm0-128H288V288h32 96 32v64H416 320zm0-128H288V160h32H480h32v64H480 320zm0-128H288V32h32H544h32V96H544 320zM151.7 469.5l-23.7 26-23.7-26-80-88L2.8 357.8l47.4-43 21.5 23.7L96 365.2V80 48h64V80 365.2l24.3-26.8 21.5-23.7 47.4 43-21.5 23.7-80 88z"/></svg>
